images/soundcloud-icon.svg

<?xml version="1.0" encoding="iso-8859-1"?>
<!-- Generator: Adobe Illustrator 15.0.0, SVG Export Plug-In . SVG Version: 6.00 Build 0)  -->
<!DOCTYPE svg PUBLIC "-//W3C//DTD SVG 1.1//EN" "http://www.w3.org/Graphics/SVG/1.1/DTD/svg11.dtd">
<svg version="1.1" id="Icons" xmlns="http://www.w3.org/2000/svg" xmlns:xlink="http://www.w3.org/1999/xlink" x="0px" y="0px"
	 width="100px" height="100px" viewBox="0 0 100 100" style="enable-background:new 0 0 100 100;" xml:space="preserve">
<path id="SoundCloud" d="M5,59.024c0,3.042,1.385,5.763,3.568,7.597V51.429C6.385,53.259,5,55.982,5,59.024 M12.342,49.432v19.183
	C13.233,68.862,14.174,69,15.143,69h0.974V49.094c-0.325-0.027-0.65-0.045-0.98-0.045C14.165,49.049,13.23,49.184,12.342,49.432
	 M20.678,50.677c-0.258-0.165-0.515-0.317-0.789-0.457V69h3.773V43.881C22.16,45.841,21.113,48.155,20.678,50.677 M27.437,40.349V69
	h3.774V38.491C29.862,38.945,28.596,39.577,27.437,40.349 M34.984,37.71V69h3.774V37.825c-0.773-0.115-1.569-0.175-2.38-0.175
	C35.906,37.65,35.441,37.673,34.984,37.71 M44.612,39.916c-1.232-0.73-2.558-1.306-3.966-1.69V69h5.66V37.646
	C45.688,38.359,45.12,39.12,44.612,39.916 M48.195,35.754V69h35.852v-0.044C91.596,68.473,95,63.79,95,58.075
	c0-6.035-4.563-10.925-10.703-10.925c-1.577,0-2.874,0.325-4.245,0.913C79.07,38.481,70.941,31,60.932,31
	C56.036,31,51.586,32.793,48.195,35.754"/>
</svg>

<?xml version="1.0"?>
<svg version="1.1" xmlns="http://www.w3.org/2000/svg" xmlns:xlink="http://www.w3.org/1999/xlink" width="100" height="100">
    <desc iVinci="yes" version="4.5" gridStep="20" showGrid="no" snapToGrid="no" codePlatform="0"/>
    <g id="Layer1" opacity="1">
        <g id="Shape1">
            <desc shapeID="1" type="0" basicInfo-basicType="0" basicInfo-roundedRectRadius="12" basicInfo-polygonSides="6" basicInfo-starPoints="5" bounding="rect(-45,-19,90,38)" text="" font-familyName="" font-pixelSize="20" font-bold="0" font-underline="0" font-alignment="1" strokeStyle="0" markerStart="0" markerEnd="0" shadowEnabled="0" shadowOffsetX="0" shadowOffsetY="2" shadowBlur="4" shadowOpacity="160" blurEnabled="0" blurRadius="4" transform="matrix(1,0,0,1,50,50)" pers-center="0,0" pers-size="0,0" pers-start="0,0" pers-end="0,0" locked="0" mesh="" flag=""/>
            <path id="shapePath1" d="M5,59.024 C5,62.066 6.385,64.787 8.568,66.621 L8.568,51.429 C6.385,53.259 5,55.982 5,59.024 M12.342,49.432 L12.342,68.615 C13.233,68.862 14.174,69 15.143,69 L16.117,69 L16.117,49.094 C15.792,49.067 15.467,49.049 15.137,49.049 C14.165,49.049 13.23,49.184 12.342,49.432 M20.678,50.677 C20.42,50.512 20.163,50.36 19.889,50.22 L19.889,69 L23.662,69 L23.662,43.881 C22.16,45.841 21.113,48.155 20.678,50.677 M27.437,40.349 L27.437,69 L31.211,69 L31.211,38.491 C29.862,38.945 28.596,39.577 27.437,40.349 M34.984,37.71 L34.984,69 L38.758,69 L38.758,37.825 C37.985,37.71 37.189,37.65 36.378,37.65 C35.906,37.65 35.441,37.673 34.984,37.71 M44.612,39.916 C43.38,39.186 42.054,38.61 40.646,38.226 L40.646,69 L46.306,69 L46.306,37.646 C45.688,38.359 45.12,39.12 44.612,39.916 M48.195,35.754 L48.195,69 L84.047,69 L84.047,68.956 C91.596,68.473 95,63.79 95,58.075 C95,52.04 90.437,47.15 84.297,47.15 C82.72,47.15 81.423,47.475 80.052,48.063 C79.07,38.481 70.941,31 60.932,31 C56.036,31 51.586,32.793 48.195,35.754 Z" style="stroke:none;fill-rule:nonzero;fill:#ffffff;fill-opacity:1;"/>
        </g>
    </g>
</svg>
